X: 25976
T: May's Smile
R: slip jig
M: 9/8
K: Gmajor
FEE ABG ADD|AGB Bcd cBd|c/B/AF GAB GAB|e3 cBd AGG|
FEE ABG ADD|AGB Bcd cBd|c/B/AF GAB GAB|e3 cBd efg||
e2e ceg fga|d2g gda bag|e2b bag ab2|agd efg dgf|
e2e ceg fga|dgf ecA dBG|ecg fdB cBG|F/G/dG AGF E2G||


